edushare/edushare/static/bundles/images/schoolboard.svg

<svg width="847" height="875" viewBox="0 0 847 875" fill="none" xmlns="http://www.w3.org/2000/svg">
<g clip-path="url(#clip0_51_94)">
<g style="mix-blend-mode:multiply" opacity="0.16">
<path d="M780.827 865.226L755.268 875L0 587.788L25.5598 577.998L780.827 865.226Z" fill="black"/>
</g>
<path d="M77.3289 37.6139L99.2473 29.2298L97.6701 394.77L75.7749 403.154L77.3289 37.6139Z" fill="#734126"/>
<path d="M75.7749 403.154L97.6701 394.77L819.631 669.231L797.736 677.615L75.7749 403.154Z" fill="#77655C"/>
<path d="M77.329 37.6139L99.2474 29.2298L821.208 303.69L799.313 312.075L77.329 37.6139Z" fill="#72553C"/>
<path d="M799.313 312.075L821.208 303.69L819.631 669.231L797.736 677.615L799.313 312.075Z" fill="#664C36"/>
<path d="M51.7227 8.38409L825.105 302.377L823.388 706.845L49.96 412.852L51.7227 8.38409ZM797.736 677.615L799.313 312.075L77.3289 37.6139L75.7749 403.17L797.736 677.615Z" fill="#AF795D"/>
<path d="M825.105 302.377L847 293.993L845.26 698.461L823.365 706.845L825.105 302.377Z" fill="#D69C83"/>
<path d="M51.7227 8.38409L73.6178 0L847 293.993L825.105 302.377L51.7227 8.38409Z" fill="#D69C83"/>
<path d="M800.774 310.41L798.084 667.154L87.859 397.473L93.1241 43.2796L800.774 310.41Z" fill="#2A5919"/>
<path d="M755.731 682.166L799.383 665.443L799.336 674.179L755.685 690.901L755.731 682.166Z" fill="#AF795D"/>
<path d="M43.5815 414.47L88.3228 397.473L799.383 665.443L755.731 682.166L43.5815 414.47Z" fill="#734126"/>
<path d="M755.731 682.166L755.685 690.901L43.5352 423.206L43.5815 414.47L755.731 682.166Z" fill="#AF795D"/>
<mask id="mask0_51_94" style="mask-type:luminance" maskUnits="userSpaceOnUse" x="509" y="575" width="46" height="18">
<path d="M511.359 576.105L554.338 592.4C553.965 592.288 553.554 592.243 553.147 592.27C552.739 592.297 552.35 592.394 552.018 592.552L509.109 576.242C509.429 576.086 509.808 575.991 510.205 575.967C510.602 575.942 511.001 575.99 511.359 576.105Z" fill="white"/>
</mask>
<g mask="url(#mask0_51_94)">
<path d="M552.018 592.537L509.109 576.227C509.437 576.062 509.828 575.962 510.239 575.937C510.649 575.913 511.062 575.966 511.429 576.089L554.338 592.4C553.965 592.288 553.554 592.243 553.147 592.27C552.739 592.297 552.35 592.394 552.018 592.552V592.537Z" fill="#C0E1E2"/>
</g>
<mask id="mask1_51_94" style="mask-type:luminance" maskUnits="userSpaceOnUse" x="505" y="576" width="48" height="22">
<path d="M549.699 597.485L506.767 581.175C506.456 581.022 506.208 580.821 506.046 580.588C505.883 580.356 505.812 580.101 505.839 579.846C505.898 579.123 506.217 578.419 506.769 577.793C507.322 577.166 508.092 576.635 509.017 576.242L552.018 592.537C551.101 592.93 550.337 593.459 549.789 594.083C549.241 594.707 548.924 595.406 548.864 596.126C548.819 596.38 548.872 596.638 549.017 596.876C549.163 597.113 549.398 597.323 549.699 597.485Z" fill="white"/>
</mask>
<g mask="url(#mask1_51_94)">
<path d="M549.699 597.485L506.767 581.175C506.456 581.022 506.208 580.821 506.046 580.588C505.883 580.356 505.812 580.101 505.839 579.846C505.898 579.123 506.217 578.419 506.769 577.793C507.322 577.166 508.092 576.635 509.017 576.242L552.018 592.537C551.101 592.93 550.337 593.459 549.789 594.083C549.241 594.707 548.924 595.406 548.864 596.126C548.833 596.383 548.902 596.641 549.065 596.876C549.227 597.111 549.477 597.316 549.792 597.47L549.699 597.485Z" fill="#C0E1E2"/>
</g>
<path d="M552.018 592.537C553.758 591.865 555.173 592.4 555.196 593.728C555.136 594.448 554.819 595.147 554.271 595.771C553.723 596.395 552.959 596.924 552.041 597.317C550.279 597.989 548.864 597.454 548.864 596.126C548.924 595.406 549.241 594.707 549.789 594.083C550.337 593.459 551.101 592.93 552.018 592.537Z" fill="#94AEAF"/>
<mask id="mask2_51_94" style="mask-type:luminance" maskUnits="userSpaceOnUse" x="474" y="550" width="46" height="18">
<path d="M477.032 550.952L519.964 567.247C519.591 567.136 519.18 567.091 518.773 567.118C518.366 567.145 517.976 567.242 517.645 567.4L474.782 551.09C475.102 550.934 475.481 550.839 475.878 550.814C476.274 550.79 476.674 550.838 477.032 550.952Z" fill="white"/>
</mask>
<g mask="url(#mask2_51_94)">
<path d="M517.714 567.4L474.782 551.09C475.109 550.925 475.501 550.825 475.911 550.8C476.322 550.776 476.735 550.829 477.101 550.952L520.034 567.247C519.661 567.136 519.25 567.091 518.843 567.118C518.435 567.145 518.046 567.242 517.714 567.4Z" fill="#F2AFCD"/>
</g>
<mask id="mask3_51_94" style="mask-type:luminance" maskUnits="userSpaceOnUse" x="471" y="551" width="47" height="22">
<path d="M515.464 572.333L472.555 556.023C472.244 555.87 471.996 555.668 471.834 555.436C471.672 555.204 471.601 554.949 471.628 554.694C471.684 553.972 472 553.269 472.548 552.643C473.096 552.016 473.862 551.484 474.782 551.09L517.714 567.4C516.793 567.791 516.024 568.32 515.472 568.944C514.92 569.567 514.599 570.268 514.537 570.989C514.506 571.246 514.575 571.504 514.737 571.739C514.9 571.974 515.15 572.179 515.464 572.333Z" fill="white"/>
</mask>
<g mask="url(#mask3_51_94)">
<path d="M515.464 572.333L472.555 556.023C472.244 555.87 471.996 555.668 471.834 555.436C471.672 555.204 471.601 554.949 471.628 554.694C471.684 553.972 472 553.269 472.548 552.643C473.096 552.016 473.862 551.484 474.782 551.09L517.714 567.4C516.793 567.791 516.024 568.32 515.472 568.944C514.92 569.567 514.599 570.268 514.537 570.989C514.506 571.246 514.575 571.504 514.737 571.739C514.9 571.974 515.15 572.179 515.464 572.333Z" fill="#F2AFCD"/>
</g>
<path d="M517.714 567.4C519.454 566.728 520.869 567.263 520.869 568.591C520.808 569.311 520.491 570.01 519.943 570.634C519.395 571.258 518.632 571.787 517.714 572.18C515.975 572.852 514.56 572.317 514.537 570.989C514.599 570.268 514.92 569.567 515.472 568.944C516.024 568.32 516.793 567.791 517.714 567.4Z" fill="#FFE1F0"/>
<mask id="mask4_51_94" style="mask-type:luminance" maskUnits="userSpaceOnUse" x="79" y="405" width="20" height="7">
<path d="M96.0697 405.506L79.6019 411.767C79.9687 411.644 80.3813 411.591 80.7918 411.615C81.2024 411.639 81.594 411.74 81.9213 411.905L98.3891 405.643C98.0618 405.479 97.6701 405.378 97.2596 405.354C96.8491 405.329 96.4365 405.382 96.0697 405.506Z" fill="white"/>
</mask>
<g mask="url(#mask4_51_94)">
<path d="M81.8518 411.905L98.3195 405.643C97.9922 405.479 97.6005 405.378 97.19 405.354C96.7795 405.329 96.3669 405.382 96.0001 405.506L79.5323 411.767C79.8992 411.644 80.3117 411.591 80.7223 411.615C81.1328 411.639 81.5244 411.74 81.8518 411.905Z" fill="#FAFFFF"/>
</g>
<mask id="mask5_51_94" style="mask-type:luminance" maskUnits="userSpaceOnUse" x="81" y="405" width="21" height="12">
<path d="M84.1016 416.914L100.569 410.653C100.876 410.498 101.12 410.296 101.278 410.064C101.436 409.832 101.503 409.577 101.474 409.324C101.417 408.602 101.102 407.899 100.554 407.273C100.006 406.646 99.24 406.114 98.3196 405.72L81.8518 411.981C82.7722 412.375 83.5378 412.907 84.086 413.534C84.6343 414.16 84.9496 414.863 85.0062 415.585C85.0353 415.839 84.9678 416.093 84.8099 416.325C84.6519 416.557 84.4085 416.76 84.1016 416.914Z" fill="white"/>
</mask>
<g mask="url(#mask5_51_94)">
<path d="M84.1016 416.914L100.569 410.653C100.876 410.498 101.12 410.296 101.278 410.064C101.436 409.832 101.503 409.577 101.474 409.324C101.417 408.602 101.102 407.899 100.554 407.273C100.006 406.646 99.24 406.114 98.3196 405.72L81.8518 411.981C82.7722 412.375 83.5378 412.907 84.086 413.534C84.6343 414.16 84.9496 414.863 85.0062 415.585C85.0353 415.839 84.9678 416.093 84.8099 416.325C84.6519 416.557 84.4085 416.76 84.1016 416.914Z" fill="#FAFFFF"/>
</g>
<path d="M81.8518 411.905C80.1122 411.248 78.6974 411.783 78.6742 413.096C78.7334 413.819 79.0522 414.523 79.6046 415.15C80.157 415.776 80.9271 416.308 81.8518 416.7C83.5913 417.357 85.0062 416.822 85.0062 415.509C84.9496 414.787 84.6343 414.084 84.086 413.458C83.5378 412.831 82.7722 412.299 81.8518 411.905Z" fill="#E5E5E5"/>
</g>
<defs>
<clipPath id="clip0_51_94">
<rect width="847" height="875" fill="white"/>
</clipPath>
</defs>
</svg>

<svg width="847" height="875" fill="none" xmlns="http://www.w3.org/2000/svg"><g clip-path="url(#clip0_51_94)"><path d="M780.827 865.226L755.268 875 0 587.788l25.56-9.79 755.267 287.228z" fill="#000" opacity=".16"/><path d="M77.329 37.614l21.918-8.384-1.577 365.54-21.895 8.384 1.554-365.54z" fill="#734126"/><path d="M75.775 403.154l21.895-8.384 721.961 274.461-21.895 8.384L75.775 403.154z" fill="#77655C"/><path d="M77.329 37.614l21.918-8.384 721.961 274.46-21.895 8.385L77.329 37.614z" fill="#72553C"/><path d="M799.313 312.075l21.895-8.385-1.577 365.541-21.895 8.384 1.577-365.54z" fill="#664C36"/><path d="M51.723 8.384l773.382 293.993-1.717 404.468L49.96 412.852 51.723 8.384zm746.013 669.231l1.577-365.54L77.329 37.614 75.775 403.17l721.961 274.445z" fill="#AF795D"/><path d="M825.105 302.377L847 293.993l-1.74 404.468-21.895 8.384 1.74-404.468z" fill="#D69C83"/><path d="M51.723 8.384L73.618 0 847 293.993l-21.895 8.384L51.723 8.384z" fill="#D69C83"/><path d="M800.774 310.41l-2.69 356.744L87.859 397.473 93.124 43.28l707.65 267.13z" fill="#2A5919"/><path d="M755.731 682.166l43.652-16.723-.047 8.736-43.651 16.722.046-8.735z" fill="#AF795D"/><path d="M43.581 414.47l44.742-16.997 711.06 267.97-43.652 16.723L43.581 414.47z" fill="#734126"/><path d="M755.731 682.166l-.046 8.735-712.15-267.695.047-8.736L755.73 682.166z" fill="#AF795D"/><mask id="mask0_51_94" style="mask-type:luminance" maskUnits="userSpaceOnUse" x="509" y="575" width="46" height="18"><path d="M511.359 576.105l42.979 16.295a3.399 3.399 0 00-1.191-.13 3.127 3.127 0 00-1.129.282l-42.909-16.31c.32-.156.699-.251 1.096-.275a3.16 3.16 0 011.154.138z" fill="#fff"/></mask><g mask="url(#mask0_51_94)"><path d="M552.018 592.537l-42.909-16.31a2.93 2.93 0 011.13-.29 3.2 3.2 0 011.19.152l42.909 16.311a3.399 3.399 0 00-1.191-.13 3.127 3.127 0 00-1.129.282v-.015z" fill="#C0E1E2"/></g><mask id="mask1_51_94" style="mask-type:luminance" maskUnits="userSpaceOnUse" x="505" y="576" width="48" height="22"><path d="M549.699 597.485l-42.932-16.31a1.87 1.87 0 01-.721-.587 1.08 1.08 0 01-.207-.742c.059-.723.378-1.427.93-2.053.553-.627 1.323-1.158 2.248-1.551l43.001 16.295c-.917.393-1.681.922-2.229 1.546s-.865 1.323-.925 2.043c-.045.254.008.512.153.75.146.237.381.447.682.609z" fill="#fff"/></mask><g mask="url(#mask1_51_94)"><path d="M549.699 597.485l-42.932-16.31a1.87 1.87 0 01-.721-.587 1.08 1.08 0 01-.207-.742c.059-.723.378-1.427.93-2.053.553-.627 1.323-1.158 2.248-1.551l43.001 16.295c-.917.393-1.681.922-2.229 1.546s-.865 1.323-.925 2.043c-.031.257.038.515.201.75.162.235.412.44.727.594l-.093.015z" fill="#C0E1E2"/></g><path d="M552.018 592.537c1.74-.672 3.155-.137 3.178 1.191-.06.72-.377 1.419-.925 2.043-.548.624-1.312 1.153-2.23 1.546-1.762.672-3.177.137-3.177-1.191.06-.72.377-1.419.925-2.043.548-.624 1.312-1.153 2.229-1.546z" fill="#94AEAF"/><mask id="mask2_51_94" style="mask-type:luminance" maskUnits="userSpaceOnUse" x="474" y="550" width="46" height="18"><path d="M477.032 550.952l42.932 16.295a3.422 3.422 0 00-1.191-.129 3.122 3.122 0 00-1.128.282l-42.863-16.31c.32-.156.699-.251 1.096-.276.396-.024.796.024 1.154.138z" fill="#fff"/></mask><g mask="url(#mask2_51_94)"><path d="M517.714 567.4l-42.932-16.31a2.926 2.926 0 011.129-.29c.411-.024.824.029 1.19.152l42.933 16.295a3.422 3.422 0 00-1.191-.129 3.127 3.127 0 00-1.129.282z" fill="#F2AFCD"/></g><mask id="mask3_51_94" style="mask-type:luminance" maskUnits="userSpaceOnUse" x="471" y="551" width="47" height="22"><path d="M515.464 572.333l-42.909-16.31a1.879 1.879 0 01-.721-.587 1.084 1.084 0 01-.206-.742c.056-.722.372-1.425.92-2.051.548-.627 1.314-1.159 2.234-1.553l42.932 16.31c-.921.391-1.69.92-2.242 1.544-.552.623-.873 1.324-.935 2.045a1.08 1.08 0 00.2.75c.163.235.413.44.727.594z" fill="#fff"/></mask><g mask="url(#mask3_51_94)"><path d="M515.464 572.333l-42.909-16.31a1.879 1.879 0 01-.721-.587 1.084 1.084 0 01-.206-.742c.056-.722.372-1.425.92-2.051.548-.627 1.314-1.159 2.234-1.553l42.932 16.31c-.921.391-1.69.92-2.242 1.544-.552.623-.873 1.324-.935 2.045a1.08 1.08 0 00.2.75c.163.235.413.44.727.594z" fill="#F2AFCD"/></g><path d="M517.714 567.4c1.74-.672 3.155-.137 3.155 1.191-.061.72-.378 1.419-.926 2.043-.548.624-1.311 1.153-2.229 1.546-1.739.672-3.154.137-3.177-1.191.062-.721.383-1.422.935-2.045.552-.624 1.321-1.153 2.242-1.544z" fill="#FFE1F0"/><mask id="mask4_51_94" style="mask-type:luminance" maskUnits="userSpaceOnUse" x="79" y="405" width="20" height="7"><path d="M96.07 405.506l-16.468 6.261a3.2 3.2 0 011.19-.152c.41.024.802.125 1.13.29l16.467-6.262a2.927 2.927 0 00-1.13-.289 3.156 3.156 0 00-1.19.152z" fill="#fff"/></mask><g mask="url(#mask4_51_94)"><path d="M81.852 411.905l16.468-6.262a2.927 2.927 0 00-1.13-.289 3.156 3.156 0 00-1.19.152l-16.468 6.261a3.2 3.2 0 011.19-.152c.41.024.802.125 1.13.29z" fill="#FAFFFF"/></g><mask id="mask5_51_94" style="mask-type:luminance" maskUnits="userSpaceOnUse" x="81" y="405" width="21" height="12"><path d="M84.102 416.914l16.467-6.261c.307-.155.551-.357.709-.589.158-.232.225-.487.196-.74-.057-.722-.372-1.425-.92-2.051-.548-.627-1.314-1.159-2.234-1.553l-16.468 6.261c.92.394 1.686.926 2.234 1.553.548.626.864 1.329.92 2.051.03.254-.038.508-.196.74a1.847 1.847 0 01-.708.589z" fill="#fff"/></mask><g mask="url(#mask5_51_94)"><path d="M84.102 416.914l16.467-6.261c.307-.155.551-.357.709-.589.158-.232.225-.487.196-.74-.057-.722-.372-1.425-.92-2.051-.548-.627-1.314-1.159-2.234-1.553l-16.468 6.261c.92.394 1.686.926 2.234 1.553.548.626.864 1.329.92 2.051.03.254-.038.508-.196.74a1.847 1.847 0 01-.708.589z" fill="#FAFFFF"/></g><path d="M81.852 411.905c-1.74-.657-3.155-.122-3.178 1.191.06.723.378 1.427.93 2.054.553.626 1.323 1.158 2.248 1.55 1.74.657 3.154.122 3.154-1.191-.056-.722-.372-1.425-.92-2.051-.548-.627-1.314-1.159-2.234-1.553z" fill="#E5E5E5"/></g><defs><clipPath id="clip0_51_94"><path fill="#fff" d="M0 0h847v875H0z"/></clipPath></defs></svg>
